X: 1
T: TEXARKANA -- HORNPIPE
B: Ryan's Mammoth Collection of Fiddle Tunes
R: hornpipe
M: 2/4
L: 1/16
Z: Contributed 20010926183027 by John Chambers jmchambers:rcn.net
K: D
(ufe) \
| dAFA dfed | ecAc egfe | fafd Bged | .c2.A2 .A2(fe) |
| dAFA dfed | ecAc egfe | fafd Bgec | d2d2d2 :|
|: (ufg) \
| afde fgaf | edcd .e2(eg) | fedf edce | dcdB .A2(fg) |
| afde fgaf | edcd .e2(eg) | fedf edce | d2d2d2 :|
